X: 27125
T: Miss McDermot's
R: polka
M: 2/4
K: Dmajor
|:f/e/|dc Bf/e/|dc Bf|gg/f/ ea/g/|f/g/f/e/ df|
e/f/e/d/ c/d/c/B/|AG Ff/e/|dc/B/ d/c/B/A/|B2 B:|
|:F|BB/A/ Bc|dD Dd|d/c/B/A/ G/F/E/D/|c/d/c/B/ AB/c/|
dc/d/ ed/e/|ff b2|ad ga/g/|fd ef/e/|
e/d/d/c/ B/d/c/B/|A/B/A/G/ Ff/e/|dc/B/ d/c/B/A/|B2 B:|
|:f/e/|d/B/c/A/ Bf/e/|d/B/c/A/ Bf|gg/f/ ea/g/|f/g/f/e/ df|
e/f/e/d/ c/d/c/B/|A/B/A/G/ Ff/e/|dc/B/ d/c/B/A/|B2 B:|

